X: 17
T: 17. Erschienen ist der herrliche Tag
N: Derived from chor017.krn
C: Johann Sebastian Bach
%%abc-version 2.0
%%abcx-abcm2ps-target-version 5.9.1 (29 Sep 2008)
%%abc-creator hum2abc beta
%%abcx-conversion-date 2019/03/11 17:28:17
%%abc-edited-by Craig Stuart Sapp
%%humdrum-veritas 4034024440
%%humdrum-veritas-data 2299697926
%%
%%barnumbers 0
L: 1/4
M: 3/4
%%staves [1 2 3 4]
V: 1 clef=treble
V: 2 clef=treble
V: 3 clef=treble-8
V: 4 clef=bass
K: G
[V:1] EEE | 
[V:2] B,B,^C | 
[V:3] G/A/BA | 
[V:4] E,/F,/G,A,- | 
[V:1] B2^c | 
[V:2] DEE | 
[V:3] FBA | 
[V:4] A,^G,A, | 
[V:1] d^cB | 
[V:2] F/^G/AG | 
[V:3] AFB | 
[V:4] F,D,E, | 
[V:1] !fermata!A3 | 
[V:2] !fermata!E3 | 
[V:3] !fermata!^c3 | 
[V:4] !fermata!A,,3 | 
[V:1] B^c^d | 
[V:2] EEF | 
[V:3] BAA | 
[V:4] ^G,A,F, | 
[V:1] e2B | 
[V:2] =G/A/G/F/E | 
[V:3] B2B | 
[V:4] E,/^D,/E,/F,/=G, | 
[V:1] d^c2 | 
[V:2] FGF | 
[V:3] B2^A | 
[V:4] F,E,F, | 
[V:1] !fermata!B2B | 
[V:2] !fermata!^D2E | 
[V:3] !fermata!F2G | 
[V:4] !fermata!B,,2E, | 
[V:1] dcB | 
[V:2] =D2D | 
[V:3] A2G | 
[V:4] F,2G, | 
[V:1] AGF | 
[V:2] E2D | 
[V:3] EA2 | 
[V:4] ^C,2D, | 
[V:1] GE2 | 
[V:2] D2^C | 
[V:3] G/A/BA/G/ | 
[V:4] B,,G,,A,, | 
[V:1] !fermata!D2D | 
[V:2] !fermata!A,2B, | 
[V:3] !fermata!F2F | 
[V:4] !fermata!D,2B,, | 
[V:1] G2A | 
[V:2] B,ED | 
[V:3] Gc2 | 
[V:4] E,2F, | 
[V:1] B2A | 
[V:2] D/E/F2 | 
[V:3] BB2 | 
[V:4] G,^D,2 | 
[V:1] Gd2 | 
[V:2] EF/G/A | 
[V:3] B/c/d2 | 
[V:4] E,B,F, | 
[V:1] !fermata!B2A | 
[V:2] !fermata!G2F | 
[V:3] !fermata!d2c | 
[V:4] !fermata!G,2A, | 
[V:1] GF2 | 
[V:2] E2^D | 
[V:3] BA/G/A | 
[V:4] B,B,,2 | 
[V:1] !fermata!E3 |]  
[V:2] !fermata!B,3 |]  
[V:3] !fermata!^G3 |]  
[V:4] !fermata!E,3 |]  



